img/home/play-button.svg

<svg height="48" viewBox="0 0 48 48" width="48" xmlns="http://www.w3.org/2000/svg"><g fill="none" fill-rule="evenodd" transform=""><rect fill="#fff" height="48" rx="24" width="48"/><g transform="translate(15.466667 15.466667)"><path d="m0 0h17.066667v17.066667h-17.066667z" fill="#d8d8d8" opacity="0"/><path d="m4.8 13.6496026v-10.01760499c0-.58910373.47756293-1.06666666 1.06666667-1.06666666.19991436 0 .39580516.05618074.5653322.16213514l8.01408403 5.00880252c.499559.31222435.6514237.97030476.3391993 1.46986372-.0858461.13735374-.2018456.25335324-.3391993.33919932l-8.01408403 5.00880255c-.49955897.3122243-1.15763937.1603596-1.46986373-.3391994-.1059544-.169527-.16213514-.3654178-.16213514-.5653322zm9.0666667-5.00880247-8.00000003-5.01333333v10.0266667z" fill="#444f6c"/></g></g></svg>

<?xml version="1.0" encoding="UTF-8"?>
<svg width="48px" height="48px" viewBox="0 0 48 48" version="1.1" xmlns="http://www.w3.org/2000/svg" xmlns:xlink="http://www.w3.org/1999/xlink">
    <!-- Generator: sketchtool 46.2 (44496) - http://www.bohemiancoding.com/sketch -->
    <title>73DE5E52-00B7-4FF0-8A0A-FCB3D5A2D88E</title>
    <desc>Created with sketchtool.</desc>
    <defs></defs>
    <g id="----A1.12-SE-Web---Developers" stroke="none" stroke-width="1" fill="none" fill-rule="evenodd">
        <g id="A1.12-SE-Web---Developers-v16.5" transform="translate(-1056.000000, -4405.000000)">
            <g id="Testimonial-#2" transform="translate(0.000000, 3577.000000)">
                <g id="Group-16" transform="translate(205.000000, 676.000000)">
                    <g id="Group-9" transform="translate(0.000000, 86.000000)">
                        <g id="Group-43" transform="translate(720.000000, 0.000000)">
                            <g id="Group-13">
                                <g id="Group-11">
                                    <g id="play_button" transform="translate(131.000000, 66.000000)">
                                        <g id="Play-button">
                                            <rect id="Rectangle-4" fill="#FFFFFF" x="0" y="0" width="48" height="48" rx="24"></rect>
                                            <g id="icon-play" transform="translate(15.466667, 15.466667)">
                                                <rect id="Rectangle" fill="#D8D8D8" opacity="0" x="0" y="0" width="17.0666667" height="17.0666667"></rect>
                                                <path d="M4.8,13.6496026 L4.8,3.63199761 L4.8,3.63199761 C4.8,3.04289388 5.27756293,2.56533095 5.86666667,2.56533095 C6.06658103,2.56533095 6.26247183,2.62151169 6.43199887,2.72746609 L14.4460829,7.73626861 L14.4460829,7.73626861 C14.9456419,8.04849296 15.0975066,8.70657337 14.7852822,9.20613233 C14.6994361,9.34348607 14.5834366,9.45948557 14.4460829,9.54533165 L6.43199887,14.5541342 L6.43199887,14.5541342 C5.9324399,14.8663585 5.2743595,14.7144938 4.96213514,14.2149348 C4.85618074,14.0454078 4.8,13.849517 4.8,13.6496026 Z M13.8666667,8.64080013 L5.86666667,3.6274668 L5.86666667,13.6541335 L13.8666667,8.64080013 L13.8666667,8.64080013 Z" id="Icon-Shape" fill="#444F6C"></path>
                                            </g>
                                        </g>
                                    </g>
                                </g>
                            </g>
                        </g>
                    </g>
                </g>
            </g>
        </g>
    </g>
</svg>
